static/assets/template/assets/img/icons/essential/detailed/Online_Store_2.svg

<svg height="109" viewBox="0 0 148 109" width="148" xmlns="http://www.w3.org/2000/svg"><g fill="none" fill-rule="evenodd" transform="translate(1 2)"><g fill-rule="nonzero"><path d="m.9 97.9c0 3.7 3 6.7 6.6 6.7h131c3.7 0 6.6-3 6.6-6.7v-80.8h-144.3v80.8z"/><path d="m138.5.3h-131c-3.7 0-6.6 3-6.6 6.6v10.2h101.4 20.6 22.3v-10.2c0-3.7-3-6.6-6.7-6.6z"/></g><path d="m138.5.3h-131c-3.7 0-6.6 3-6.6 6.6v10.2h101.4 20.6 22.3v-10.2c0-3.7-3-6.6-6.7-6.6z" fill-rule="nonzero"/><g stroke-linecap="round" stroke-linejoin="round" stroke-width="3"><g><path d="m.9 17.1v80.8c0 3.7 3 6.7 6.6 6.7h131c3.7 0 6.6-3 6.6-6.7v-80.8"/><path d="m114.6 17.1h-12.4-101.4v-10.2c0-3.7 3-6.6 6.6-6.6h131c3.7 0 6.6 3 6.6 6.6v10.2"/><path d="m125.9 17.1h-1.2"/><circle cx="10" cy="8.9" r="1"/><circle cx="18.1" cy="8.9" r="1"/><circle cx="26.2" cy="8.9" r="1"/></g><path d="m13.9 35.3h5.9c1.1 0 2.1.7 2.5 1.7l10.1 25.5c.6 1.5 2.1 2.5 3.7 2.5h22.7c1.6 0 3.1-1 3.7-2.5l8.2-19.6c.4-1-.3-2.2-1.5-2.2h-33.4"/><circle cx="36.5" cy="77.2" r="4.1"/><circle cx="57.5" cy="77.2" r="4.1"/><path d="m89.6 42.5h35.4"/><path d="m89.6 58.8h35.4"/><path d="m89.6 75.2h20.4"/></g></g></svg>

<?xml version="1.0" encoding="UTF-8"?>
<svg width="148px" height="109px" viewBox="0 0 148 109" version="1.1" xmlns="http://www.w3.org/2000/svg" xmlns:xlink="http://www.w3.org/1999/xlink">
    <!-- Generator: Sketch 51.2 (57519) - http://www.bohemiancoding.com/sketch -->
    <title>Online_Store_2</title>
    <desc>Created with Sketch.</desc>
    <defs></defs>
    <g id="Page-1" stroke="none" stroke-width="1" fill="none" fill-rule="evenodd">
        <g id="Online_Store_2" transform="translate(1.000000, 2.000000)">
            <g id="Group" class="fill-neutral" fill-rule="nonzero">
                <path d="M0.9,97.9 C0.9,101.6 3.9,104.6 7.5,104.6 L138.5,104.6 C142.2,104.6 145.1,101.6 145.1,97.9 L145.1,17.1 L0.8,17.1 L0.8,97.9 L0.9,97.9 Z" id="Shape"></path>
                <path d="M138.5,0.3 L7.5,0.3 C3.8,0.3 0.9,3.3 0.9,6.9 L0.9,17.1 L102.3,17.1 L122.9,17.1 L145.2,17.1 L145.2,6.9 C145.2,3.2 142.2,0.3 138.5,0.3 Z" id="Shape"></path>
            </g>
            <path d="M138.5,0.3 L7.5,0.3 C3.8,0.3 0.9,3.3 0.9,6.9 L0.9,17.1 L102.3,17.1 L122.9,17.1 L145.2,17.1 L145.2,6.9 C145.2,3.2 142.2,0.3 138.5,0.3 Z" id="Shape" class="fill-primary-100" fill-rule="nonzero"></path>
            <g id="Group" class="stroke-primary" stroke-linecap="round" stroke-linejoin="round" stroke-width="3">
                <g id="Shape">
                    <path d="M0.9,17.1 L0.9,97.9 C0.9,101.6 3.9,104.6 7.5,104.6 L138.5,104.6 C142.2,104.6 145.1,101.6 145.1,97.9 L145.1,17.1"></path>
                    <path d="M114.6,17.1 L102.2,17.1 L0.8,17.1 L0.8,6.9 C0.8,3.2 3.8,0.3 7.4,0.3 L138.4,0.3 C142.1,0.3 145,3.3 145,6.9 L145,17.1"></path>
                    <path d="M125.9,17.1 L124.7,17.1"></path>
                </g>
                <circle id="Oval" cx="10" cy="8.9" r="1"></circle>
                <circle id="Oval" cx="18.1" cy="8.9" r="1"></circle>
                <circle id="Oval" cx="26.2" cy="8.9" r="1"></circle>
            </g>
            <path d="M13.9,35.3 L19.8,35.3 C20.9,35.3 21.9,36 22.3,37 L32.4,62.5 C33,64 34.5,65 36.1,65 L58.8,65 C60.4,65 61.9,64 62.5,62.5 L70.7,42.9 C71.1,41.9 70.4,40.7 69.2,40.7 L35.8,40.7" id="Shape" class="stroke-primary" stroke-width="3" stroke-linecap="round" stroke-linejoin="round"></path>
            <circle id="Oval" class="stroke-primary" stroke-width="3" stroke-linecap="round" stroke-linejoin="round" cx="36.5" cy="77.2" r="4.1"></circle>
            <circle id="Oval" class="stroke-primary" stroke-width="3" stroke-linecap="round" stroke-linejoin="round" cx="57.5" cy="77.2" r="4.1"></circle>
            <path d="M89.6,42.5 L125,42.5" id="Shape" class="stroke-primary" stroke-width="3" stroke-linecap="round" stroke-linejoin="round"></path>
            <path d="M89.6,58.8 L125,58.8" id="Shape" class="stroke-primary" stroke-width="3" stroke-linecap="round" stroke-linejoin="round"></path>
            <path d="M89.6,75.2 L110,75.2" id="Shape" class="stroke-primary" stroke-width="3" stroke-linecap="round" stroke-linejoin="round"></path>
        </g>
    </g>
</svg>
